assets/features/payment-flow/Vietcombank.svg

<svg width="200" height="200" viewBox="0 0 200 200" fill="none" xmlns="http://www.w3.org/2000/svg">
<rect x="0.5" y="0.5" width="199" height="199" rx="39.5" fill="white"/>
<rect x="0.5" y="0.5" width="199" height="199" rx="39.5" stroke="#8D8D8D"/>
<path fill-rule="evenodd" clip-rule="evenodd" d="M83.2767 43.3828C74.8551 45.1426 71.8384 48.9134 72.0898 54.444C72.4669 62.1115 81.0142 76.8179 85.0365 83.3541C92.0755 94.7924 100.497 105.099 109.799 114.652C117.34 122.068 122.117 123.702 130.161 112.767C137.075 103.717 143.359 94.6667 148.89 83.4798C151.278 78.5776 153.541 73.1727 155.426 67.1393C157.563 60.1003 156.809 53.8156 149.896 49.1648C156.557 52.4329 159.448 58.3406 159.951 65.0025C160.328 71.413 158.443 78.3262 156.935 83.4798C153.289 96.175 148.639 109.122 142.731 120.56C138.332 129.233 132.675 139.791 127.019 147.585C114.575 164.805 102.508 159.274 88.4303 147.585C79.5058 140.169 70.9585 130.867 63.5425 120.686C56.1264 110.379 47.9562 95.1695 43.054 83.4798C36.3921 67.3907 41.5457 59.2205 49.7159 54.067C58.8917 48.0336 72.3412 44.8912 83.2767 43.3828Z" fill="url(#paint0_linear_359_2594)"/>
<path fill-rule="evenodd" clip-rule="evenodd" d="M83.0254 79.9601C96.0978 78.0747 129.91 75.9379 141.725 82.0969C145.748 84.1081 145.748 86.8734 145.371 90.1415C146.502 88.0047 147.759 85.7421 148.89 83.4796C151.278 78.5775 153.541 73.1725 155.426 67.1392C157.563 60.1002 156.809 53.8154 149.896 49.1647C147.382 47.782 144.365 46.9021 141.725 46.0223C133.932 43.7597 125.259 42.8799 116.46 42.2514C112.815 42 109.044 42 105.274 42C98.3603 42 90.8185 42.5028 83.2767 43.5084C74.8551 45.2681 71.8384 49.039 72.0898 54.5696C72.4669 60.9801 78.626 72.5441 83.0254 79.9601Z" fill="url(#paint1_linear_359_2594)"/>
<defs>
<linearGradient id="paint0_linear_359_2594" x1="145.314" y1="116.626" x2="49.7871" y2="49.7376" gradientUnits="userSpaceOnUse">
<stop stop-color="#006840"/>
<stop offset="0.4" stop-color="#007A48"/>
<stop offset="1" stop-color="#86C440"/>
</linearGradient>
<linearGradient id="paint1_linear_359_2594" x1="85.3974" y1="42.7677" x2="141.926" y2="82.3495" gradientUnits="userSpaceOnUse">
<stop stop-color="#006840"/>
<stop offset="0.3" stop-color="#007A48"/>
<stop offset="1" stop-color="#86C440"/>
</linearGradient>
</defs>
</svg>

<svg xmlns="http://www.w3.org/2000/svg" width="200" height="200" fill="none" viewBox="0 0 200 200"><rect width="199" height="199" x=".5" y=".5" fill="#fff" rx="39.5"/><rect width="199" height="199" x=".5" y=".5" stroke="#8d8d8d" rx="39.5"/><path fill="url(#a)" fill-rule="evenodd" d="M83.277 43.383c-8.422 1.76-11.439 5.53-11.187 11.061.377 7.667 8.924 22.374 12.947 28.91 7.038 11.438 15.46 21.745 24.762 31.298 7.541 7.416 12.318 9.05 20.362-1.885 6.914-9.05 13.198-18.1 18.729-29.287 2.388-4.902 4.651-10.307 6.536-16.34 2.137-7.04 1.383-13.324-5.53-17.975 6.661 3.268 9.552 9.176 10.055 15.837.377 6.411-1.508 13.324-3.016 18.478-3.646 12.695-8.296 25.642-14.204 37.08-4.399 8.673-10.056 19.231-15.712 27.025-12.444 17.22-24.511 11.689-38.589 0-8.924-7.416-17.472-16.718-24.888-26.899-7.416-10.307-15.586-25.517-20.488-37.206-6.662-16.09-1.508-24.26 6.662-29.413 9.176-6.033 22.625-9.176 33.56-10.684" clip-rule="evenodd"/><path fill="url(#b)" fill-rule="evenodd" d="M83.025 79.96c13.073-1.885 46.885-4.022 58.7 2.137 4.023 2.011 4.023 4.776 3.646 8.044 1.131-2.136 2.388-4.399 3.519-6.661 2.388-4.903 4.651-10.308 6.536-16.34 2.137-7.04 1.383-13.325-5.53-17.975-2.514-1.383-5.531-2.263-8.171-3.143-7.793-2.262-16.466-3.142-25.265-3.77C112.815 42 109.044 42 105.274 42c-6.914 0-14.455.503-21.997 1.508-8.422 1.76-11.439 5.531-11.187 11.062.377 6.41 6.536 17.974 10.935 25.39" clip-rule="evenodd"/><defs><linearGradient id="a" x1="145.314" x2="49.787" y1="116.626" y2="49.738" gradientUnits="userSpaceOnUse"><stop stop-color="#006840"/><stop offset=".4" stop-color="#007a48"/><stop offset="1" stop-color="#86c440"/></linearGradient><linearGradient id="b" x1="85.397" x2="141.926" y1="42.768" y2="82.35" gradientUnits="userSpaceOnUse"><stop stop-color="#006840"/><stop offset=".3" stop-color="#007a48"/><stop offset="1" stop-color="#86c440"/></linearGradient></defs></svg>
